X: 1661
T: Sana da Yaptırayım Naciyem...
C: ?
O: Turkey
F: http://compmusic.upf.edu/node/140
N: segah--turku--raksaksagi--sana_da--rumeli
N: makam= segah
N: form= turku
N: usul= raksaksagi = 9/8
M: 9/8
L: 1/16
K: C _1/4B _1/4e ^f 
Q: 1/4=216
%%MIDI tuningsystem comma53
g2g2 g2g3fe2 g2f2 fe | d2 e2f2 g2fe d2dc B4  | \
w:  ARANAĞME  |   | 
ede2 f2d3cdc cBB4 | 
w:   | 
g2 g2g2 g3f e2g2 f2fe  | d2e2 f2g2 fed2 dcB4 | \
w:  ARANAĞME  |   | 
ed e2f2 d3c dccB B4  | 
w:   | 
d4 f2f2 f2f4f2 d2 | f2 g2^3/4a2 b2c'2 c'bba aggf  | \
w:  *  Sa na  da  yap tı  |  ra *  yım  *  *  Na *  ci *  yem  *  a  | 
f4 a2g2 gff2 ^3/4e2g2 gf | 
w:  man  fil *  di *  şi  *  *  ta  | 
f4.d2 .e2.f2 g2gf f^3/4egf  | f4 g4 g2f2 ^3/4e2g2 gf | \
w:  rak  SAZ  |  *  fil di şi  *  *  ta  | 
f4.d2 .e2.f2 g2gf f^3/4egf  | 
w:  rak   SAZ  | 
f4 g2g2 g2g3fe2 g2 | f2 fed2 e2f2 g2fe d2dc  | \
w:  *  Ta ra  da  kâ *  kül  |  le ri *  ni  *  *  Na ci *  yem  a  | 
B4 ede2 f2d3cdc cB | 
w:  man  bir  *  *  ya na  *  bı  | 
B4B2 c2d2 e2f2 gfeg  | f4 g2g2 g2g3fe2 g2 | \
w:  rak   SAZ  |  *  Ta ra  da  kâ *  kül  | 
f2 fed2 e2f2 g2fe d2dc  | 
w:  le ri *  ni  *  *  Na ci *  yem  a  | 
B4 ede2 f2d3cdc cB | B4B2 c2d2 e2f2 gfeg  | 
w:  man  bir  *  *  ya na  *  bı  |  rak   SAZ  | 
f4 f2f2 f2f4f2 d2 | f2 g2^3/4a2 b2c'2 c'bba aggf  | \
w:  *  Be nim  de  sev di  |  ce *  ğim  *  *  Na *  ci *  yem  *  a  | 
f4 a2g2 gff2 ^3/4e2g2 gf | 
w:  man  bu *  ra *  dan  *  *  ı  | 
f4.d2 .e2.f2 g2gf f^3/4egf  | f4 g4 g2f2 ^3/4e2g2 gf | \
w:  rak  SAZ  |  *  bu ra dan  *  *  ı  | 
f4.d2 .e2.f2 g2gf f^3/4egf  | 
w:  rak   SAZ  | 
f4 g2g2 g2g3fe2 g2 | f2 fed2 e2f2 g2fe d2dc  | \
w:  *  Göğ sü  de  çap *  raz   |  düğ me *  li  *  *  Na ci *  yem  a  | 
B4 ede2 f2d3cdc cB | 
w:  man  sen  *  *  ki me  *  yan  | 
B4B2 c2d2 e2f2 gfeg  | f4 g4 g2g3fe2 g2 | \
w:  dın   SAZ  |  *  Gur be te  *  gi  | 
f2 fed2 e2f2 g2fe d2dc  | 
w:  de *  *  ni  *  *  gi de *  ni  a  | 
B4 ede2 f2d3cdc cB | B8z8z2  | g2g2 g2g3fe2 g2f2 fe | 
w:  man  dön *  *  mez  mi  *  san  |  dın    |  ARANAĞME  | 
d2 e2f2 g2fe d2dc B4  | ede2 f2d3cdc cBB4 | 
w:   |   | 
g2 g2g2 g3f e2g2 f2fe  | d2e2 f2g2 fed2 dcB4 | \
w:  ARANAĞME  |   | 
ed e2f2 d3c dccB B4  | 
w:   | 
d4 f2f2 f2f4f2 d2 | f2 g2^3/4a2 b2c'2 c'bba aggf  | \
w:  *  Sa na  da  yap tı  |  ra *  yım  *  *  Na *  ci *  yem  *  a  | 
f4 a2g2 gff2 ^3/4e2g2 gf | 
w:  man  fil *  di *  şi  *  *  ta  | 
f4.d2 .e2.f2 g2gf f^3/4egf  | f4 g4 g2f2 ^3/4e2g2 gf | \
w:  rak  SAZ  |  *  fil di şi  *  *  ta  | 
f4.d2 .e2.f2 g2gf f^3/4egf  | 
w:  rak   SAZ  | 
f4 g2g2 g2g3fe2 g2 | f2 fed2 e2f2 g2fe d2dc  | \
w:  *  Ta ra  da  kâ *  kül  |  le ri *  ni  *  *  Na ci *  yem  a  | 
B4 ede2 f2d3cdc cB | 
w:  man  bir  *  *  ya na  *  bı  | 
B4B2 c2d2 e2f2 gfeg  | f4 g2g2 g2g3fe2 g2 | \
w:  rak   SAZ  |  *  Ta ra  da  kâ *  kül  | 
f2 fed2 e2f2 g2fe d2dc  | 
w:  le ri *  ni  *  *  Na ci *  yem  a  | 
B4 ede2 f2d3cdc cB | B4B2 c2d2 e2f2 gfeg  | 
w:  man  bir  *  *  ya na  *  bı  |  rak   SAZ  | 
f4 f2f2 f2f4f2 d2 | f2 g2^3/4a2 b2c'2 c'bba aggf  | \
w:  *  Be nim  de  sev di  |  ce *  ğim  *  *  Na *  ci *  yem  *  a  | 
f4 a2g2 gff2 ^3/4e2g2 gf | 
w:  man  bu *  ra *  dan  *  *  ı  | 
f4.d2 .e2.f2 g2gf f^3/4egf  | f4 g4 g2f2 ^3/4e2g2 gf | \
w:  rak  SAZ  |  *  bu ra dan  *  *  ı  | 
f4.d2 .e2.f2 g2gf f^3/4egf  | 
w:  rak   SAZ  | 
f4 g2g2 g2g3fe2 g2 | f2 fed2 e2f2 g2fe d2dc  | \
w:  *  Göğ sü  de  çap *  raz   |  düğ me *  li  *  *  Na ci *  yem  a  | 
B4 ede2 f2d3cdc cB | 
w:  man  sen  *  *  ki me  *  yan  | 
B4B2 c2d2 e2f2 gfeg  | f4 g4 g2g3fe2 g2 | \
w:  dın   SAZ  |  *  Gur be te  *  gi  | 
f2 fed2 e2f2 g2fe d2dc  | 
w:  de *  *  ni  *  *  gi de *  ni  a  | 
B4 ede2 f2d3cdc cB | B8z8z2  | |


